content/linear-algebra/images/perp.svg

<svg height="227.77pt" viewBox="0 0 172.83 227.77" width="172.83pt" xmlns="http://www.w3.org/2000/svg" xmlns:xlink="http://www.w3.org/1999/xlink"><symbol id="a" overflow="visible"><path d="m2.796875-8.625-.140625-.140625c-.625.3125-1.046875.421875-1.921875.5l-.046875.25h.578125c.28125 0 .40625.09375.40625.296875 0 .09375-.015625.203125-.015625.28125l-.578125 3.203125c-.171875.90625-.359375 1.71875-.984375 4.21875l.109375.125.796875-.203125.28125-1.484375c.109375-.578125.390625-1.109375.796875-1.515625.828125 2.390625 1.203125 3.203125 1.5 3.203125.15625 0 .453125-.15625.96875-.53125l.5625-.375-.09375-.234375-.515625.296875c-.171875.09375-.25.109375-.359375.109375s-.203125-.0625-.296875-.265625c-.421875-.765625-.6875-1.421875-1.15625-2.890625l.171875-.15625c.71875-.734375 1.28125-1.03125 1.875-1.03125.09375 0 .21875.015625.421875.0625l.203125-.75c-.203125-.0625-.421875-.109375-.5625-.109375-.796875 0-1.78125.921875-3.28125 3.015625zm0 0"/></symbol><symbol id="b" overflow="visible"><path d="m2.71875.03125h1.015625c.203125-.53125.3125-.828125.46875-1.15625l1.515625-3.4375c.109375-.265625.234375-.375.4375-.40625l.359375-.0625v-.453125l-1.15625.03125c-.609375-.015625-.703125-.015625-1.15625-.03125v.453125l.453125.015625c.171875.015625.28125.109375.28125.203125 0 .15625-.03125.3125-.109375.5l-.734375 1.796875c-.09375.265625-.203125.515625-.40625.96875l-1.0625-2.65625c-.109375-.296875-.15625-.46875-.15625-.609375 0-.109375.09375-.1875.265625-.203125l.5-.015625v-.453125l-1.546875.03125c-.15625 0-.34375 0-1.5625-.03125v.453125l.3125.015625c.203125.03125.34375.234375.5625.75zm0 0"/></symbol><symbol id="c" overflow="visible"><path d="m4.6875-.953125-.0625.984375c1-.03125 1-.03125 1.125-.03125s.328125 0 .65625.03125h.5625v-.4375l-.390625-.03125c-.375-.015625-.4375-.109375-.4375-.75v-4.375l-.109375-.0625-.84375.265625c-.390625.109375-.609375.140625-1.34375.25v.421875l.53125.03125c.28125.03125.3125.140625.3125.84375v1.859375c0 .59375-.515625 1.078125-1.15625 1.078125-.671875 0-.921875-.421875-.921875-1.5625v-3.125l-.125-.0625-.828125.265625c-.40625.109375-.609375.140625-1.359375.25v.421875l.546875.03125c.265625.03125.296875.140625.296875.84375v2.140625c0 1.203125.65625 1.875 1.796875 1.875.34375 0 .65625-.09375.84375-.28125zm0 0"/></symbol><symbol id="d" overflow="visible"><path d="m4.28125 2.140625-.65625.734375c.8125.59375.8125.59375.90625.671875.09375.0625.265625.1875.5.421875.0625.046875.25.203125.4375.359375l.265625-.34375-.28125-.28125c-.28125-.25-.265625-.359375.125-.859375l2.6875-3.453125-.046875-.109375-.828125-.3125c-.375-.15625-.5625-.265625-1.21875-.640625l-.25.34375.390625.34375c.203125.203125.15625.3125-.28125.875l-1.140625 1.453125c-.359375.46875-1.078125.53125-1.578125.140625-.53125-.40625-.453125-.890625.25-1.796875l1.921875-2.46875-.0625-.125-.8125-.296875c-.390625-.171875-.5625-.265625-1.234375-.640625l-.25.34375.40625.34375c.1875.203125.15625.296875-.28125.859375l-1.3125 1.6875c-.75.9375-.640625 1.875.25 2.578125.265625.203125.578125.34375.84375.296875zm0 0"/></symbol><symbol id="e" overflow="visible"><path d="m2.125 1.703125.796875.625c.5-.296875.75-.46875 1.078125-.625l3.3125-1.78125c.25-.125.421875-.140625.59375-.046875l.328125.171875.28125-.359375-.9375-.6875c-.46875-.390625-.546875-.453125-.890625-.734375l-.28125.359375.359375.28125c.109375.125.140625.28125.09375.34375-.109375.125-.234375.21875-.40625.328125l-1.6875.953125c-.21875.171875-.46875.28125-.90625.515625l.796875-2.75c.09375-.296875.171875-.46875.265625-.578125.0625-.078125.171875-.078125.328125.015625l.390625.28125.28125-.359375-1.234375-.921875c-.125-.09375-.265625-.203125-1.21875-.984375l-.28125.359375.25.203125c.125.15625.109375.40625-.03125.9375zm0 0"/></symbol><symbol id="f" overflow="visible"><path d="m8.234375 2.796875c.171875.140625.34375.265625.5.0625.140625-.1875-.03125-.3125-.203125-.453125l-5.3125-4.140625c-.171875-.140625-.34375-.265625-.484375-.078125-.15625.203125.015625.328125.1875.46875zm0 0"/></symbol><symbol id="g" overflow="visible"><path d="m7.515625-5.078125-.03125-.1875c-.6875-.140625-1.078125-.328125-1.8125-.796875l-.1875.171875.453125.359375c.21875.171875.25.3125.125.484375-.0625.0625-.125.140625-.171875.203125l-2.4375 2.15625c-.6875.625-1.34375 1.140625-3.359375 2.734375v.171875l.75.3125 1.140625-1c.4375-.375.984375-.625 1.5625-.6875-.8125 2.40625-1.03125 3.265625-.796875 3.453125.125.09375.453125.15625 1.09375.171875l.671875.046875.078125-.234375-.59375-.09375c-.203125-.015625-.265625-.078125-.34375-.140625-.09375-.0625-.125-.171875-.078125-.390625.140625-.859375.328125-1.546875.875-2.984375l.21875-.015625c1.015625-.140625 1.65625-.03125 2.125.34375.0625.046875.15625.140625.28125.3125l.625-.46875c-.125-.171875-.265625-.34375-.375-.4375-.625-.484375-1.96875-.359375-4.453125.359375zm0 0"/></symbol><g stroke-linecap="round" stroke-linejoin="round" stroke-miterlimit="10" transform="matrix(.1 0 0 -.1 0 227.77)"><path d="m1117.1875 1475.395312-1074.6875-1432.890625" fill="none" stroke="#006400" stroke-width="14.9975"/><path d="m1141.171875 1507.3875-32.578125-25.546875 17.148438-12.851563zm0 0" fill="#006400" stroke="#006400" stroke-width="14.9975"/><path d="m684.84375 1849.614062 456.328125-342.226562" fill="none" stroke="#8b0000" stroke-width="14.9975"/><path d="m652.851562 1873.6375 25.585938-32.578125 12.851562 17.148437zm0 0" fill="#8b0000" stroke="#8b0000" stroke-width="14.9975"/><path d="m1645.507812 2179.848437-1603.007812-2137.34375" fill="none" stroke="#000" stroke-width="4.99917"/><path d="m1690.507812 2239.848437-61.054687-47.929687 32.148437-24.101563zm0 0" stroke="#000" stroke-width="4.99917"/><path d="m629.140625 1802.465625-586.640625-1759.960938" fill="none" stroke="#000" stroke-width="4.99917"/><path d="m652.851562 1873.6375-42.773437-64.804688 38.125-12.695312zm0 0" stroke="#000" stroke-width="4.99917"/></g><use fill="#006400" x="61.9199" xlink:href="#a" y="161.5298"/><use fill="#006400" x="67.43982" xlink:href="#b" y="161.5298"/><use fill="#8b0000" x="81.0301" xlink:href="#d" y="46.01"/><use fill="#8b0000" x="88.784" xlink:href="#f" y="52.068"/><use fill="#8b0000" x="98.5238" xlink:href="#g" y="59.678"/><use fill="#8b0000" x="102.873723" xlink:href="#e" y="63.076529"/><use x="138.84" xlink:href="#b" y="55.69"/><use x="23.76" xlink:href="#c" y="134.6502"/></svg>

<?xml version="1.0" encoding="UTF-8"?>
<svg xmlns="http://www.w3.org/2000/svg" xmlns:xlink="http://www.w3.org/1999/xlink" width="172.83pt" height="227.77pt" viewBox="0 0 172.83 227.77" version="1.1">
<defs>
<g>
<symbol overflow="visible" id="glyph0-0">
<path style="stroke:none;" d=""/>
</symbol>
<symbol overflow="visible" id="glyph0-1">
<path style="stroke:none;" d="M 2.796875 -8.625 L 2.65625 -8.765625 C 2.03125 -8.453125 1.609375 -8.34375 0.734375 -8.265625 L 0.6875 -8.015625 L 1.265625 -8.015625 C 1.546875 -8.015625 1.671875 -7.921875 1.671875 -7.71875 C 1.671875 -7.625 1.65625 -7.515625 1.65625 -7.4375 L 1.078125 -4.234375 C 0.90625 -3.328125 0.71875 -2.515625 0.09375 -0.015625 L 0.203125 0.109375 L 1 -0.09375 L 1.28125 -1.578125 C 1.390625 -2.15625 1.671875 -2.6875 2.078125 -3.09375 C 2.90625 -0.703125 3.28125 0.109375 3.578125 0.109375 C 3.734375 0.109375 4.03125 -0.046875 4.546875 -0.421875 L 5.109375 -0.796875 L 5.015625 -1.03125 L 4.5 -0.734375 C 4.328125 -0.640625 4.25 -0.625 4.140625 -0.625 C 4.03125 -0.625 3.9375 -0.6875 3.84375 -0.890625 C 3.421875 -1.65625 3.15625 -2.3125 2.6875 -3.78125 L 2.859375 -3.9375 C 3.578125 -4.671875 4.140625 -4.96875 4.734375 -4.96875 C 4.828125 -4.96875 4.953125 -4.953125 5.15625 -4.90625 L 5.359375 -5.65625 C 5.15625 -5.71875 4.9375 -5.765625 4.796875 -5.765625 C 4 -5.765625 3.015625 -4.84375 1.515625 -2.75 Z M 2.796875 -8.625 "/>
</symbol>
<symbol overflow="visible" id="glyph1-0">
<path style="stroke:none;" d=""/>
</symbol>
<symbol overflow="visible" id="glyph1-1">
<path style="stroke:none;" d="M 2.71875 0.03125 L 3.734375 0.03125 C 3.9375 -0.5 4.046875 -0.796875 4.203125 -1.125 L 5.71875 -4.5625 C 5.828125 -4.828125 5.953125 -4.9375 6.15625 -4.96875 L 6.515625 -5.03125 L 6.515625 -5.484375 L 5.359375 -5.453125 C 4.75 -5.46875 4.65625 -5.46875 4.203125 -5.484375 L 4.203125 -5.03125 L 4.65625 -5.015625 C 4.828125 -5 4.9375 -4.90625 4.9375 -4.8125 C 4.9375 -4.65625 4.90625 -4.5 4.828125 -4.3125 L 4.09375 -2.515625 C 4 -2.25 3.890625 -2 3.6875 -1.546875 L 2.625 -4.203125 C 2.515625 -4.5 2.46875 -4.671875 2.46875 -4.8125 C 2.46875 -4.921875 2.5625 -5 2.734375 -5.015625 L 3.234375 -5.03125 L 3.234375 -5.484375 L 1.6875 -5.453125 C 1.53125 -5.453125 1.34375 -5.453125 0.125 -5.484375 L 0.125 -5.03125 L 0.4375 -5.015625 C 0.640625 -4.984375 0.78125 -4.78125 1 -4.265625 Z M 2.71875 0.03125 "/>
</symbol>
<symbol overflow="visible" id="glyph1-2">
<path style="stroke:none;" d="M 4.6875 -0.953125 L 4.625 0.03125 C 5.625 0 5.625 0 5.75 0 C 5.875 0 6.078125 0 6.40625 0.03125 C 6.484375 0.03125 6.71875 0.03125 6.96875 0.03125 L 6.96875 -0.40625 L 6.578125 -0.4375 C 6.203125 -0.453125 6.140625 -0.546875 6.140625 -1.1875 L 6.140625 -5.5625 L 6.03125 -5.625 L 5.1875 -5.359375 C 4.796875 -5.25 4.578125 -5.21875 3.84375 -5.109375 L 3.84375 -4.6875 L 4.375 -4.65625 C 4.65625 -4.625 4.6875 -4.515625 4.6875 -3.8125 L 4.6875 -1.953125 C 4.6875 -1.359375 4.171875 -0.875 3.53125 -0.875 C 2.859375 -0.875 2.609375 -1.296875 2.609375 -2.4375 L 2.609375 -5.5625 L 2.484375 -5.625 L 1.65625 -5.359375 C 1.25 -5.25 1.046875 -5.21875 0.296875 -5.109375 L 0.296875 -4.6875 L 0.84375 -4.65625 C 1.109375 -4.625 1.140625 -4.515625 1.140625 -3.8125 L 1.140625 -1.671875 C 1.140625 -0.46875 1.796875 0.203125 2.9375 0.203125 C 3.28125 0.203125 3.59375 0.109375 3.78125 -0.078125 Z M 4.6875 -0.953125 "/>
</symbol>
<symbol overflow="visible" id="glyph2-0">
<path style="stroke:none;" d=""/>
</symbol>
<symbol overflow="visible" id="glyph2-1">
<path style="stroke:none;" d="M 4.28125 2.140625 L 3.625 2.875 C 4.4375 3.46875 4.4375 3.46875 4.53125 3.546875 C 4.625 3.609375 4.796875 3.734375 5.03125 3.96875 C 5.09375 4.015625 5.28125 4.171875 5.46875 4.328125 L 5.734375 3.984375 L 5.453125 3.703125 C 5.171875 3.453125 5.1875 3.34375 5.578125 2.84375 L 8.265625 -0.609375 L 8.21875 -0.71875 L 7.390625 -1.03125 C 7.015625 -1.1875 6.828125 -1.296875 6.171875 -1.671875 L 5.921875 -1.328125 L 6.3125 -0.984375 C 6.515625 -0.78125 6.46875 -0.671875 6.03125 -0.109375 L 4.890625 1.34375 C 4.53125 1.8125 3.8125 1.875 3.3125 1.484375 C 2.78125 1.078125 2.859375 0.59375 3.5625 -0.3125 L 5.484375 -2.78125 L 5.421875 -2.90625 L 4.609375 -3.203125 C 4.21875 -3.375 4.046875 -3.46875 3.375 -3.84375 L 3.125 -3.5 L 3.53125 -3.15625 C 3.71875 -2.953125 3.6875 -2.859375 3.25 -2.296875 L 1.9375 -0.609375 C 1.1875 0.328125 1.296875 1.265625 2.1875 1.96875 C 2.453125 2.171875 2.765625 2.3125 3.03125 2.265625 Z M 4.28125 2.140625 "/>
</symbol>
<symbol overflow="visible" id="glyph2-2">
<path style="stroke:none;" d="M 2.125 1.703125 L 2.921875 2.328125 C 3.421875 2.03125 3.671875 1.859375 4 1.703125 L 7.3125 -0.078125 C 7.5625 -0.203125 7.734375 -0.21875 7.90625 -0.125 L 8.234375 0.046875 L 8.515625 -0.3125 L 7.578125 -1 C 7.109375 -1.390625 7.03125 -1.453125 6.6875 -1.734375 L 6.40625 -1.375 L 6.765625 -1.09375 C 6.875 -0.96875 6.90625 -0.8125 6.859375 -0.75 C 6.75 -0.625 6.625 -0.53125 6.453125 -0.421875 L 4.765625 0.53125 C 4.546875 0.703125 4.296875 0.8125 3.859375 1.046875 L 4.65625 -1.703125 C 4.75 -2 4.828125 -2.171875 4.921875 -2.28125 C 4.984375 -2.359375 5.09375 -2.359375 5.25 -2.265625 L 5.640625 -1.984375 L 5.921875 -2.34375 L 4.6875 -3.265625 C 4.5625 -3.359375 4.421875 -3.46875 3.46875 -4.25 L 3.1875 -3.890625 L 3.4375 -3.6875 C 3.5625 -3.53125 3.546875 -3.28125 3.40625 -2.75 Z M 2.125 1.703125 "/>
</symbol>
<symbol overflow="visible" id="glyph3-0">
<path style="stroke:none;" d=""/>
</symbol>
<symbol overflow="visible" id="glyph3-1">
<path style="stroke:none;" d="M 8.234375 2.796875 C 8.40625 2.9375 8.578125 3.0625 8.734375 2.859375 C 8.875 2.671875 8.703125 2.546875 8.53125 2.40625 L 3.21875 -1.734375 C 3.046875 -1.875 2.875 -2 2.734375 -1.8125 C 2.578125 -1.609375 2.75 -1.484375 2.921875 -1.34375 Z M 8.234375 2.796875 "/>
</symbol>
<symbol overflow="visible" id="glyph4-0">
<path style="stroke:none;" d=""/>
</symbol>
<symbol overflow="visible" id="glyph4-1">
<path style="stroke:none;" d="M 7.515625 -5.078125 L 7.484375 -5.265625 C 6.796875 -5.40625 6.40625 -5.59375 5.671875 -6.0625 L 5.484375 -5.890625 L 5.9375 -5.53125 C 6.15625 -5.359375 6.1875 -5.21875 6.0625 -5.046875 C 6 -4.984375 5.9375 -4.90625 5.890625 -4.84375 L 3.453125 -2.6875 C 2.765625 -2.0625 2.109375 -1.546875 0.09375 0.046875 L 0.09375 0.21875 L 0.84375 0.53125 L 1.984375 -0.46875 C 2.421875 -0.84375 2.96875 -1.09375 3.546875 -1.15625 C 2.734375 1.25 2.515625 2.109375 2.75 2.296875 C 2.875 2.390625 3.203125 2.453125 3.84375 2.46875 L 4.515625 2.515625 L 4.59375 2.28125 L 4 2.1875 C 3.796875 2.171875 3.734375 2.109375 3.65625 2.046875 C 3.5625 1.984375 3.53125 1.875 3.578125 1.65625 C 3.71875 0.796875 3.90625 0.109375 4.453125 -1.328125 L 4.671875 -1.34375 C 5.6875 -1.484375 6.328125 -1.375 6.796875 -1 C 6.859375 -0.953125 6.953125 -0.859375 7.078125 -0.6875 L 7.703125 -1.15625 C 7.578125 -1.328125 7.4375 -1.5 7.328125 -1.59375 C 6.703125 -2.078125 5.359375 -1.953125 2.875 -1.234375 Z M 7.515625 -5.078125 "/>
</symbol>
</g>
</defs>
<g id="surface1">
<path style="fill:none;stroke-width:14.9975;stroke-linecap:round;stroke-linejoin:round;stroke:rgb(0%,39.208984%,0%);stroke-opacity:1;stroke-miterlimit:10;" d="M 1117.1875 1475.395312 L 42.5 42.504687 " transform="matrix(0.1,0,0,-0.1,0,227.77)"/>
<path style="fill-rule:nonzero;fill:rgb(0%,39.208984%,0%);fill-opacity:1;stroke-width:14.9975;stroke-linecap:round;stroke-linejoin:round;stroke:rgb(0%,39.208984%,0%);stroke-opacity:1;stroke-miterlimit:10;" d="M 1141.171875 1507.3875 L 1108.59375 1481.840625 L 1125.742188 1468.989062 Z M 1141.171875 1507.3875 " transform="matrix(0.1,0,0,-0.1,0,227.77)"/>
<path style="fill:none;stroke-width:14.9975;stroke-linecap:round;stroke-linejoin:round;stroke:rgb(54.492188%,0%,0%);stroke-opacity:1;stroke-miterlimit:10;" d="M 684.84375 1849.614062 L 1141.171875 1507.3875 " transform="matrix(0.1,0,0,-0.1,0,227.77)"/>
<path style="fill-rule:nonzero;fill:rgb(54.492188%,0%,0%);fill-opacity:1;stroke-width:14.9975;stroke-linecap:round;stroke-linejoin:round;stroke:rgb(54.492188%,0%,0%);stroke-opacity:1;stroke-miterlimit:10;" d="M 652.851562 1873.6375 L 678.4375 1841.059375 L 691.289062 1858.207812 Z M 652.851562 1873.6375 " transform="matrix(0.1,0,0,-0.1,0,227.77)"/>
<path style="fill:none;stroke-width:4.99917;stroke-linecap:round;stroke-linejoin:round;stroke:rgb(0%,0%,0%);stroke-opacity:1;stroke-miterlimit:10;" d="M 1645.507812 2179.848437 L 42.5 42.504687 " transform="matrix(0.1,0,0,-0.1,0,227.77)"/>
<path style="fill-rule:nonzero;fill:rgb(0%,0%,0%);fill-opacity:1;stroke-width:4.99917;stroke-linecap:round;stroke-linejoin:round;stroke:rgb(0%,0%,0%);stroke-opacity:1;stroke-miterlimit:10;" d="M 1690.507812 2239.848437 L 1629.453125 2191.91875 L 1661.601562 2167.817187 Z M 1690.507812 2239.848437 " transform="matrix(0.1,0,0,-0.1,0,227.77)"/>
<path style="fill:none;stroke-width:4.99917;stroke-linecap:round;stroke-linejoin:round;stroke:rgb(0%,0%,0%);stroke-opacity:1;stroke-miterlimit:10;" d="M 629.140625 1802.465625 L 42.5 42.504687 " transform="matrix(0.1,0,0,-0.1,0,227.77)"/>
<path style="fill-rule:nonzero;fill:rgb(0%,0%,0%);fill-opacity:1;stroke-width:4.99917;stroke-linecap:round;stroke-linejoin:round;stroke:rgb(0%,0%,0%);stroke-opacity:1;stroke-miterlimit:10;" d="M 652.851562 1873.6375 L 610.078125 1808.832812 L 648.203125 1796.1375 Z M 652.851562 1873.6375 " transform="matrix(0.1,0,0,-0.1,0,227.77)"/>
<g style="fill:rgb(0%,39.208984%,0%);fill-opacity:1;">
  <use xlink:href="#glyph0-1" x="61.9199" y="161.5298"/>
</g>
<g style="fill:rgb(0%,39.208984%,0%);fill-opacity:1;">
  <use xlink:href="#glyph1-1" x="67.43982" y="161.5298"/>
</g>
<g style="fill:rgb(54.492188%,0%,0%);fill-opacity:1;">
  <use xlink:href="#glyph2-1" x="81.0301" y="46.01"/>
</g>
<g style="fill:rgb(54.492188%,0%,0%);fill-opacity:1;">
  <use xlink:href="#glyph3-1" x="88.784" y="52.068"/>
</g>
<g style="fill:rgb(54.492188%,0%,0%);fill-opacity:1;">
  <use xlink:href="#glyph4-1" x="98.5238" y="59.678"/>
</g>
<g style="fill:rgb(54.492188%,0%,0%);fill-opacity:1;">
  <use xlink:href="#glyph2-2" x="102.873723" y="63.076529"/>
</g>
<g style="fill:rgb(0%,0%,0%);fill-opacity:1;">
  <use xlink:href="#glyph1-1" x="138.84" y="55.69"/>
</g>
<g style="fill:rgb(0%,0%,0%);fill-opacity:1;">
  <use xlink:href="#glyph1-2" x="23.76" y="134.6502"/>
</g>
</g>
</svg>
